X: 3
M: C|
L: 1/8
K: Bb
V: 1
|:\
dfdB egec | dfdB Tc4 |\
|:\
f=efg f4 | G_AGF G2E2 |\
gfga Tg4 | G=ABG A2F2 |\
fdcB gedc | dcBA B4 :|
V: 2 clef=bass middle=d
|:\
b4 c'4 | b2B2 f4 |\
b4 (a2b2) | c'2c2 f4 :|\
|:\
c4 c4 | f2c2 A2F2 |\
d2B2 e2c2 | f2d2 g2a2 |\
b2d2 e2c2 | f2F2 B4 :|

